X:1
T:Title
%%score 1 { ( 2 5 ) | ( 3 4 ) }
L:1/8
Q:1/4=132
M:6/4
K:Db
V:1 treble nm="Akkordion"
V:2 treble nm="Grand Piano"
V:5 treble 
V:3 bass 
V:4 bass 
V:1
 A6 A4 A2 | A6 B4 c2 | e6 d4 B2 | A12 | A6 B4 F2 | G12 | G6 A4 E2 | F12 | A6 A4 A2 | A6 B4 c2 | %10
w: Robert~Harkness * *||||||||||
 e6 d4 B2 | A12 | c6 c4 B2 | e12 | c6 c4 B2 | A12 | z12 | z12 | z12 | z12 | z12 | z12 | z12 | z12 | %24
w: ||||||||||||||
 z12 | z12 | z12 | z12 | z12 | z12 | z12 |[M:7/4] z14 |] %32
w: ||||||||
V:2
 A,2 F2 F2 A,2 F2 A,2 | A,2 F2 F2 B,2 F2 C2 | E2 B2 B2 B,2 B2 B,2 | %3
 A,2 F2 F2[K:bass] D,2 C,2 _C,2 | A,2[K:treble] F2 F2 B,2 F2 F2 | %5
 B,2 G2 G2[K:bass] z2[K:treble] G2 G2 | A,2 G2 G2 A,2 G2 G2 | %7
 A,2 F2 F2[K:bass] z2[K:treble] F2 F2 | A,2 F2 F2 A,2 F2 A,2 | A,2 F2 F2 B,2 F2 C2 | %10
 E2 B2 B2 D2 B2 B,2 | A,2 F2 F2[K:bass] z2[K:treble] F2 F2 | C2 A2 A2 C2 =G2 B,2 | %13
 E2 c2 c2 C2 B,2 A,2 | C2 A2 A2 C2 =G2 B,2 | A,2 A2 A2 .A6 | [FA]6 [FA]4 [FA]2 | %17
 [FA]6 [FB]4 [Fc]2 | [Ge]6 [Gd]4 [CGB]2 | [DFA]12 | [=DFA]6 [B,FB]4 [B,DF]2 | [B,EG]12 | %22
 [A,EG]6 [A,CA]4 [A,CE]2 | [A,DF]12 | [DFA]6 [CFA]4 [B,FA]2 | [A,FA]6 [FB]4 [Fc]2 | %26
 [Ge]6 [Gd]4 [CGB]2 | [DFA]12 | [DGB]6 [=DAB]4 [DAB]2 | [EGe]12 | [EGc]6 [DGB]4 [EGc]2 | %31
[M:7/4] d2- d2- d2- d6 z2 |] %32
V:3
 z2 D2 D2 z2 .D4 | z2 D2 D2 z2 .D4 | z2[K:treble] G2 G2[K:bass] z2 .G4 | z2 D2 D2 z6 | %4
 z2 =D2 D2 z2 D2 D2 | z2 E2 E2 z2 E2 E2 | z2 E2 E2 z2 E2 E2 | z2 D2 D2 z2 D2 D2 | z2 D2 D2 z2 .D4 | %9
 z2 D2 D2 z2 .D4 | z2[K:treble] G2 G2[K:bass] z2 .G4 | z2 D2 D2 z2 D2 D2 | z2 E2 E2 z2 .D4 | %13
 z2[K:treble] A2 A2 z6 | z2 E2 E2 z2 .D4 | z2 [E,C]2 [F,D]2 .[G,E]6 | [D,D]6 [D,C]4 [D,B,]2 | %17
 [D,A,]6 [D,A,]4 [D,A,]2 | [D,A,]6 [D,B,]4 D,2 | D,12 | B,,6 =D,4 B,,2 | E,6 D,6 | C,6 A,,4 A,,2 | %23
 D,12 | D,6 D,4 D,2 | D,6 [D,A,]4 [D,A,]2 | [D,=A,]6 [D,B,]4 D,2 | D,12 | G,6 F,4 F,2 | E,12 | %30
 A,6 A,4 A,2 |[M:7/4] D,4 D,2 D,6 z2 |] %32
V:4
 D,,6 D,6 | D,,6 D,6 | D,,6[K:treble][K:bass] D,6 | D,,6 z6 | B,,6 =D,6 | E,6 z6 | C,6 A,,6 | %7
 D,6 z6 | D,,6 D,6 | D,,6 D,6 | D,,6[K:treble][K:bass] D,6 | D,,6 z6 | E,,6 E,6 | %13
 E,,6[K:treble] z6 | E,6 E,,6 | A,,12 | x12 | x12 | x12 | x12 | x12 | x12 | x12 | x12 | x12 | x12 | %26
 x12 | x12 | x12 | x12 | x12 |[M:7/4] x14 |] %32
V:5
 x12 | x12 | x12 | x6[K:bass] x6 | x2[K:treble] x10 | z6[K:bass] D,6[K:treble] | x12 | %7
 z6[K:bass] D,,6[K:treble] | x12 | x12 | x12 | z6[K:bass] D,6[K:treble] | x12 | x12 | x12 | x12 | %16
 x12 | x12 | x12 | x12 | x12 | x12 | x12 | x12 | x12 | x12 | x12 | x12 | x12 | x12 | x12 | %31
[M:7/4] [DF]4 [B,G]2 [A,F]6 z2 |] %32

